X:1
T:The Pedlar (2)
M:6/8
L:1/8
K:D
B/2-B/2| BAF FED| ABA A2 D/2D/2| EFG| FEF| DB,D B,2 B/2B/2| BAF FED|\
 ABA A2 D/2D/2| EFG FEF| DDD| B,2 A| dd d/2d/2 edc| dBd B2 d| ddd edc|\
 dBd B2 d| fdd| edc| dBc d2 d| BAF FEF| DB,D B,2 B/2B/2| BAF FED| ABA|\
 A2 D/2D/2| EFG FEF| DB,D B,2||
